X:0742
T:Mrs. Clark's Strathspey.
M:C
L:1/8
Q:1/4=120
I: :: ||
N:Bar 2 is printed |AcFd Eeef|
Z:Jack Campin * www.campin.me.uk * 2009
K:D
f|d/d/d dA FDDF|AdFd Eeef|gefd d/c/B/A/ dA|B/B/B de fdd:|
f|d/d/d ad bdad|gefd ceef|gefd d/c/B/A/ dA|B/B/B de fddf|
  d/d/d ad bdad|gefd ceef|gece dAFA       |BGEg     fdd|]
<end>
<start>
